frontend/public/svg/logos/codepen.svg

<svg width="160" height="157" viewBox="0 0 160 157" fill="none" xmlns="http://www.w3.org/2000/svg">
<g clip-path="url(#clip0)">
<path d="M159.353 104.09C158.984 94.5839 158.88 84.9967 158.778 75.7253C158.755 73.6185 158.733 71.5129 158.704 69.3503C158.543 67.0013 158.556 64.6441 158.74 62.2971C159.072 55.8059 159.45 48.4482 153.408 44.7163C134.553 32.2931 117.977 21.9277 102.739 13.0311L101.004 11.9946C96.1264 9.08116 91.0824 6.06876 86.1514 3.08439C81.9652 0.553553 81.198 0.409007 77.2252 3.40519C72.8113 6.72757 68.3935 10.0659 63.973 13.4198C45.0594 27.7424 25.5018 42.5513 5.60819 56.0161C2.97759 57.8414 1.76931 60.051 1.80541 62.9547C1.76799 66.2154 1.81789 69.5446 1.86646 72.7639C1.95375 78.5961 2.04437 84.6266 1.61184 90.3833L1.60655 90.4542L1.61633 90.5244C1.91102 92.5919 1.76015 96.3501 1.58556 100.702C1.18716 110.65 0.732355 121.926 4.88631 123.907C15.3221 128.383 36.0281 137.469 52.6676 144.77C64.7442 150.068 74.2802 154.253 76.7552 155.302C77.8408 155.859 79.0426 156.15 80.262 156.152C83.2608 156.152 86.0798 154.431 88.5765 152.707C108.568 140.044 131.227 125.69 153.431 114.331C157.955 112.021 159.559 109.244 159.353 104.09ZM150.729 102.843C147.86 101.839 135.82 92.8374 129.171 87.8663C123.264 83.4491 121.205 81.9106 120.327 81.5063L151.416 59.5031C152.327 62.5157 151.544 80.466 151.114 90.3216C150.764 98.3558 150.642 101.527 150.729 102.847V102.843ZM85.2751 116.962C85.3795 115.422 85.3644 113.876 85.2305 112.339C85.0277 108.968 84.817 105.484 87.0026 103.179C96.1618 96.8896 103.888 91.6612 111.789 86.6074C112.084 86.463 112.362 86.2851 112.618 86.0777C112.86 85.8565 113.149 85.6938 113.464 85.6012C114.079 86.2799 116.179 87.7868 123.582 92.9299C131.168 98.2023 143.646 106.872 145.175 109.094C143.92 109.781 140.035 112.158 126.659 120.416C111.573 129.73 89.1823 143.552 85.3756 145.368C85.031 142.907 85.1787 132.647 85.2712 126.315C85.3677 119.27 85.3683 117.535 85.2751 116.965V116.962ZM148.49 51.6172C148.443 51.6587 148.387 51.6893 148.328 51.7066L148.161 51.7969C142.179 56.2968 135.908 60.5738 129.843 64.7093C125.3 67.8073 120.601 71.0102 116.029 74.3043C113.994 75.7293 112.654 75.7194 110.722 74.2636C103.966 69.1875 96.5996 63.8672 87.5388 57.5184C85.3729 56.0016 84.5164 54.2827 84.4731 51.3922C84.4075 44.7363 84.1679 38.0632 83.9388 31.6101C83.7026 24.9542 83.4584 18.0723 83.4006 11.2412C83.4289 10.8933 83.4256 10.5437 83.3914 10.1964C83.3324 9.69917 83.3383 9.19628 83.4079 8.70042C83.4472 8.69839 83.4866 8.70396 83.524 8.71643C92.0597 14.3183 101.004 19.8787 108.903 24.7881C110.084 25.8186 114.506 28.4832 120.083 31.8457C126.024 35.4273 133.418 39.8853 139.147 43.7353C148.315 49.899 148.533 51.3966 148.493 51.6204L148.49 51.6172ZM77.0834 143.097C77.1044 144.153 77.1398 145.919 76.6541 146.383C76.5951 146.441 76.5157 146.475 76.4323 146.476C69.9162 143.746 63.3095 141.064 56.9194 138.469C42.5521 132.635 27.7025 126.606 13.2933 119.791C15.7217 117.144 28.3412 106.001 36.9103 98.4353C45.3626 90.9727 47.392 89.152 47.9282 88.5705C48.681 88.732 50.8818 90.0197 51.9739 90.6603C52.5606 91.0383 53.175 91.3717 53.8117 91.6579C55.4578 92.8157 58.6548 94.3896 62.3441 96.2076C68.6363 99.3062 78.1453 103.99 78.0705 106.352C77.8257 117.793 77.4903 129.431 77.1667 140.687L77.1477 141.343C77.0676 141.924 77.046 142.512 77.0834 143.097ZM40.406 83.7812C39.8934 84.1691 38.0745 85.8618 29.6892 93.7575C22.3671 100.654 11.6229 110.774 9.05988 112.902C8.29065 109.313 8.10045 90.869 7.98296 79.5603C7.85957 67.6294 7.78993 64.7723 7.61469 63.9322H7.62322L40.404 83.7766L40.406 83.7812ZM12.6823 58.9609L12.6999 58.9504C12.6959 58.9561 12.6911 58.9612 12.6854 58.9654L12.6823 58.9609ZM78.018 20.2908C77.8382 22.1524 77.8034 24.0251 77.9123 25.8921C77.8027 33.0462 77.7811 38.4483 77.7673 42.3922C77.7384 49.9545 77.7266 53.0843 77.111 53.7026C75.5928 55.2207 72.8861 57.2991 69.1404 60.1758C63.9318 64.1795 56.8013 69.6522 48.2525 77.1811C48.0188 77.3274 47.8033 77.5014 47.6106 77.6989C47.3953 77.9155 47.1569 78.1078 46.8998 78.2732C46.7541 78.1918 13.1042 59.1985 12.7117 58.9484C13.5184 58.489 16.7056 56.2161 33.1095 44.3606C49.4273 32.5669 73.6232 15.0804 77.7404 12.6539C78.3915 14.9622 78.1992 17.6668 78.0193 20.2908H78.018ZM72.4536 66.9468C77.9242 62.3437 79.5479 60.9439 80.0231 60.3361L106.221 80.0381C104.401 81.3455 102.568 82.6635 100.723 83.9912C95.0552 88.071 89.1935 92.2887 83.6448 96.1814C83.1991 96.4472 82.6898 96.587 82.1707 96.585C76.4953 94.427 70.7714 91.3448 65.2372 88.3638C61.8282 86.526 58.3062 84.6318 54.7915 82.947C56.0287 80.7653 66.6378 71.8405 72.4549 66.9468H72.4536Z" fill="black"/>
</g>
<defs>
<clipPath id="clip0">
<rect width="158.834" height="155.552" fill="white" transform="translate(0.883301 0.641602)"/>
</clipPath>
</defs>
</svg>

<svg xmlns="http://www.w3.org/2000/svg" width="160" height="157" fill="none" viewBox="0 0 160 157"><g clip-path="url(#a)"><path fill="#000" d="M159.353 104.09c-.369-9.506-.473-19.093-.575-28.365-.023-2.106-.045-4.212-.074-6.375a48 48 0 0 1 .036-7.053c.332-6.491.71-13.849-5.332-17.58-18.855-12.424-35.431-22.79-50.669-31.686l-1.735-1.036c-4.878-2.914-9.922-5.926-14.853-8.91-4.186-2.531-4.953-2.676-8.926.32Q70.605 8.39 63.973 13.42C45.059 27.742 25.502 42.55 5.608 56.016c-2.63 1.825-3.839 4.035-3.803 6.939-.037 3.26.013 6.59.061 9.809.088 5.832.178 11.863-.254 17.62l-.005.07.01.07c.294 2.068.143 5.826-.031 10.178-.399 9.948-.854 21.224 3.3 23.205 10.436 4.476 31.142 13.562 47.782 20.863 12.076 5.298 21.612 9.483 24.087 10.532a7.7 7.7 0 0 0 3.507.85c2.999 0 5.818-1.721 8.314-3.445 19.992-12.663 42.651-27.017 64.855-38.376 4.524-2.31 6.128-5.087 5.922-10.241m-8.624-1.247c-2.869-1.004-14.909-10.006-21.558-14.977-5.907-4.417-7.966-5.955-8.844-6.36l31.089-22.003c.911 3.013.128 20.963-.302 30.819-.35 8.034-.472 11.205-.385 12.525zm-65.454 14.119a30 30 0 0 0-.044-4.623c-.203-3.371-.414-6.855 1.772-9.16 9.159-6.29 16.885-11.518 24.786-16.572q.444-.217.829-.53c.242-.22.531-.383.846-.476.615.679 2.715 2.186 10.118 7.329 7.586 5.272 20.064 13.942 21.593 16.164-1.255.687-5.14 3.064-18.516 11.322-15.086 9.314-37.477 23.136-41.283 24.952-.345-2.461-.197-12.721-.105-19.053.097-7.045.097-8.78.004-9.35zm63.215-65.345a.4.4 0 0 1-.162.09l-.167.09c-5.982 4.5-12.253 8.777-18.318 12.912-4.543 3.098-9.242 6.301-13.814 9.595-2.035 1.425-3.375 1.415-5.307-.04-6.756-5.076-14.122-10.397-23.183-16.746-2.166-1.516-3.023-3.235-3.066-6.126-.066-6.656-.305-13.329-.534-19.782-.236-6.656-.48-13.538-.538-20.369a6 6 0 0 0-.01-1.045c-.059-.497-.053-1 .017-1.496a.3.3 0 0 1 .116.016c8.536 5.602 17.48 11.163 25.379 16.072 1.181 1.03 5.603 3.695 11.18 7.058 5.941 3.581 13.335 8.04 19.064 11.89 9.168 6.163 9.386 7.66 9.346 7.884zm-71.407 91.48c.021 1.056.057 2.822-.429 3.286a.32.32 0 0 1-.222.093c-6.516-2.73-13.123-5.412-19.513-8.007-14.367-5.834-29.216-11.863-43.626-18.678 2.429-2.647 15.048-13.79 23.617-21.356 8.453-7.462 10.482-9.283 11.018-9.865.753.162 2.954 1.45 4.046 2.09q.882.568 1.838.998c1.646 1.158 4.843 2.732 8.532 4.55 6.292 3.098 15.801 7.782 15.726 10.144-.244 11.441-.58 23.079-.903 34.335l-.02.656a9 9 0 0 0-.064 1.754M40.406 83.781c-.513.388-2.331 2.08-10.717 9.976-7.322 6.897-18.066 17.017-20.63 19.145-.768-3.589-.959-22.033-1.076-33.342-.123-11.93-.193-14.788-.368-15.628h.008l32.781 19.845zm-27.724-24.82.018-.01-.015.014zm65.336-38.67a36 36 0 0 0-.106 5.601 1314 1314 0 0 0-.145 16.5c-.029 7.563-.04 10.692-.656 11.31-1.518 1.519-4.225 3.597-7.97 6.474-5.21 4.004-12.34 9.476-20.889 17.005q-.351.22-.641.518a4.2 4.2 0 0 1-.711.574c-.146-.081-33.796-19.074-34.188-19.325.806-.459 3.994-2.732 20.397-14.587C49.427 32.567 73.624 15.08 77.74 12.654c.651 2.308.46 5.013.28 7.637zm-5.564 46.656c5.47-4.603 7.094-6.003 7.57-6.61l26.197 19.701-5.498 3.953c-5.668 4.08-11.53 8.298-17.078 12.19a2.86 2.86 0 0 1-1.474.404c-5.676-2.158-11.4-5.24-16.934-8.221-3.409-1.838-6.93-3.732-10.445-5.417 1.237-2.182 11.846-11.106 17.663-16z"/></g><defs><clipPath id="a"><path fill="#fff" d="M.883.642h158.834v155.552H.883z"/></clipPath></defs></svg>
